X:1
T: 贝加尔湖畔
T: Baikal Lake
C: Lyricist: 李健 (Li Jian)
C: Composer: 李健 (Li Jian)
M:4/4
K:F
Q:1/4=120
%%MIDI chordprog 1
%%MIDI program 1
P: Intro 
z2 DE F2 c2 | "Gm" B8 | "C7" CD E2 B2 |"Fmaj7" A8 | "D7" z2 A2 d2 c2 | "Gm" B4 G4 | "A7" G2 E2 A2 G2 | " Dm" D8 | 
P: Verse
z2 DE F2 c2 | "Gm" B4 z4 | "C7" CD E2 B2 |"Fmaj7" A4 z4 | "D7" z2 A2 d2 c2 | "Gm" B2 G2 z2 z E | "C7" E2 F G2 B2 | "Fmaj7" A4 z4 | 
w: 

